!!!!SEGMENT: pl-cz--iii-107--001-006_dankowski-adalbert--vesperae-es-sicut-erat.krn
!!!cenid: 18xx:766
!!!COM: Dankowski, Adalbert
!!!COM-rismID: pe30000793
!!!CDT: ~1760-~1836
!!!CNT: Polish
!!!OPR: Vesperae Es
!!!OTL: Sicut erat
!!!OMV: 006
!!!PDT: 1825
!!!AGN: Sacred; Vespers
!!!SMS-siglum: PL-CZ
!!!SMS-shelfmark: III-107
!!!SMS-shelfwork: 001-006 M
!!!SMS-variant:
!!!SMS-altvar:
!!!NIFC-rismSourceID: 300000115
!!!NIFC-rismChildID: 300000115
!!!NIFC-islandoraID: pl-cz:34263
!!!URL-pdf-islandora: https://repozytorium.nifc.pl/islandora/object/pl-cz%3A34263/datastream/PDF/view
!!!URL-scan: https://polish.musicsources.pl/pl/lokalizacje/galeria/rekopisy/6825/1 @EN{Scan on Polish Music Sources Website} @PL{Skany w portalu Dziedzictwo Muzyki Polskiej w otwartym dostępie}
!!!IIIF:
!!!ONB-nifc: UWAGA: części Vesperae: Dixit Dominus, Tecum principium, Iudicabit, De torrente,
!!!AIN: 1 alto 1 bass 2 clara 2 cor 1 organ 1 soprn 1 tenor 2 violn
!!!key: E-
**kern	**fba	**dynam	**kern	**dynam	**kern	**dynam	**kern	**text	**kern	**text	**kern	**text	**kern	**text	**kern	**kern	**kern	**kern	**dynam
*part11	*part11	*part11	*part10	*part10	*part9	*part9	*part8	*part8	*part7	*part7	*part6	*part6	*part5	*part5	*part4	*part3	*part2	*part1	*part1
*staff11	*staff11	*	*staff10	*	*staff9	*	*staff8	*staff8	*staff7	*staff7	*staff6	*staff6	*staff5	*staff5	*staff4	*staff3	*staff2	*staff1	*
*	*	*	*group4	*	*group4	*	*group3	*	*group3	*	*group3	*	*group3	*	*group2	*group2	*group1	*group1	*
*I"Organo.	*	*	*I"Violino Secondo.	*	*I"Violino ,, Primo	*	*I"Baſso	*	*I"Tenore	*	*I"Alto!	*	*I"Soprano.	*	*I"Corno Secondo. in Dis Obligato.	*I"Corno Prymo in Dis Obligato	*I"Clarinetto Secundo in Dis	*I"Clarinetto. Primo. in Dis.	*
*I'org	*	*	*I'vl 2	*	*I'vl 1	*	*I'B	*	*I'T	*	*I'A	*	*I'S	*	*I'cor 2 in Dis	*I'cor 1 in Dis	*I'cl 2 in Dis	*I'cl 1 in Dis	*
*Iorgan	*	*	*Ivioln	*	*Ivioln	*	*Ibass	*	*Itenor	*	*Ialto	*	*Isoprn	*	*Icor	*Icor	*Iclara	*Iclara	*
*ICklav	*	*	*ICstr	*	*ICstr	*	*ICvox	*	*ICvox	*	*ICvox	*	*ICvox	*	*ICbras	*ICbras	*ICww	*ICww	*
*IGcont	*	*	*IGacmp	*	*IGacmp	*	*IGcoro	*	*IGcoro	*	*IGcoro	*	*IGcoro	*	*IGacmp	*IGacmp	*IGacmp	*IGacmp	*
*clefF4	*	*	*clefG2	*	*clefG2	*	*clefF4	*	*clefC4	*	*clefC3	*	*clefC1	*	*clefG2	*clefG2	*clefG2	*clefG2	*
*	*	*	*	*	*	*	*	*	*	*	*	*	*	*	*ITrd5c9	*ITrd5c9	*ITrd1c2	*ITrd1c2	*
*k[b-e-a-]	*	*	*k[b-e-a-]	*	*k[b-e-a-]	*	*k[b-e-a-]	*	*k[b-e-a-]	*	*k[b-e-a-]	*	*k[b-e-a-]	*	*k[b-e-a-]	*k[b-e-a-]	*k[b-e-a-]	*k[b-e-a-]	*
*E-:	*	*	*E-:	*	*E-:	*	*E-:	*	*E-:	*	*E-:	*	*E-:	*	*E-:	*E-:	*E-:	*E-:	*
*M4/4	*	*	*M4/4	*	*M4/4	*	*M4/4	*	*M4/4	*	*M4/4	*	*M4/4	*	*M4/4	*M4/4	*M4/4	*M4/4	*
*met(c)	*	*	*met(C.)	*	*met(C.)	*	*met(C.)	*	*met(c)	*	*met(c)	*	*met(c)	*	*met(c)	*met(c)	*met(c)	*met(C.|)	*
*2\right	*	*	*	*	*	*	*all\right	*	*	*	*all\right	*	*	*	*	*all\right	*all\right	*	*
=1	=1	=1	=1	=1	=1	=1	=1	=1	=1	=1	=1	=1	=1	=1	=1	=1	=1	=1	=1
*tremolo	*	*	*	*	*	*	*2\right	*	*2\right	*	*2\right	*	*2\right	*	*	*	*	*	*
!LO:TX:a:t=Tutti.	!	!	!	!	!LO:TX:a:t=Tutti	!	!	!	!	!	!	!	!	!	!	!	!	!	!
!LO:TX:a:Bi:t=Presto	!	!	!	!LO:DY:t=for.:rj	!LO:TX:a:Bi:t=Presto	!	!LO:TX:a:Bi:t=Presto	!	!LO:TX:a:Bi:t=Presto	!	!LO:TX:a:Bi:t=Allo	!	!LO:TX:a:Bi:t=Presto	!	!LO:TX:a:Bi:t=Presto.	!LO:TX:a:Bi:t=Presto	!LO:TX:a:Bi:t=Allo	!LO:TX:a:Bi:t=Allegro.	!
8E-\L	.	.	16gLL 16G/	f	4.b-/	.	2E-\	Si-	2e-\	Si-	2g\	Si-	2b-\	Si-	4E-/	4e-\	1b-	1gg	.
.	.	.	16g 16G/	.	.	.	.	.	.	.	.	.	.	.	.	.	.	.	.
8E-\	.	.	16g 16G/	.	.	.	.	.	.	.	.	.	.	.	.	.	.	.	.
.	.	.	16gJJ 16G/	.	.	.	.	.	.	.	.	.	.	.	.	.	.	.	.
*	*	*	*tremolo	*	*	*	*	*	*	*	*	*	*	*	*	*	*	*	*
8E-\	.	.	16g 16G/LL	.	.	.	.	.	.	.	.	.	.	.	8E-/L	8e-\L	.	.	.
.	.	.	16g 16G/	.	.	.	.	.	.	.	.	.	.	.	.	.	.	.	.
8E-\J	.	.	16g 16G/	.	8g/	.	.	.	.	.	.	.	.	.	8E-/J	8e-\J	.	.	.
.	.	.	16g 16G/JJ	.	.	.	.	.	.	.	.	.	.	.	.	.	.	.	.
8E-\L	.	.	16g 16G/LL	.	(8ee-\L	.	2E-\	-cut	2e-\	-cut	2g\	-cut	2b-\	-cut	4E-/	4e-\	.	.	.
.	.	.	16g 16G/	.	.	.	.	.	.	.	.	.	.	.	.	.	.	.	.
8E-\	.	.	16g 16G/	.	8dd\	.	.	.	.	.	.	.	.	.	.	.	.	.	.
.	.	.	16g 16G/	.	.	.	.	.	.	.	.	.	.	.	.	.	.	.	.
8E-\	.	.	16g 16G/	.	8cc\	.	.	.	.	.	.	.	.	.	4r	4r	.	.	.
.	.	.	16g 16G/	.	.	.	.	.	.	.	.	.	.	.	.	.	.	.	.
8E-\J	.	.	16g 16G/	.	8b-\J)	.	.	.	.	.	.	.	.	.	.	.	.	.	.
.	.	.	16g 16G/JJ	.	.	.	.	.	.	.	.	.	.	.	.	.	.	.	.
=2	=2	=2	=2	=2	=2	=2	=2	=2	=2	=2	=2	=2	=2	=2	=2	=2	=2	=2	=2
8E-\L	6 4	.	16a- 16A-/LL	.	4.cc\	.	2E-\	e-	2e-\	e-	2a-\	e-	2cc\	e-	4E-/	4e-\	1cc	1aa-	.
.	.	.	16a- 16A-/	.	.	.	.	.	.	.	.	.	.	.	.	.	.	.	.
8E-\	.	.	16a- 16A-/	.	.	.	.	.	.	.	.	.	.	.	.	.	.	.	.
.	.	.	16a- 16A-/	.	.	.	.	.	.	.	.	.	.	.	.	.	.	.	.
8E-\	.	.	16a- 16A-/	.	.	.	.	.	.	.	.	.	.	.	8E-/L	8e-\L	.	.	.
.	.	.	16a- 16A-/	.	.	.	.	.	.	.	.	.	.	.	.	.	.	.	.
8E-\J	.	.	16a- 16A-/	.	8a-\	.	.	.	.	.	.	.	.	.	8E-/J	8e-\J	.	.	.
.	.	.	16a- 16A-/JJ	.	.	.	.	.	.	.	.	.	.	.	.	.	.	.	.
8E-\L	.	.	16a- 16A-/LL	.	(8ff\L	.	2E-\	-rat	2e-\	-rat	2a-\	-rat	2cc\	-rat	4E-/	4e-\	.	.	.
.	.	.	16a- 16A-/	.	.	.	.	.	.	.	.	.	.	.	.	.	.	.	.
8E-\	.	.	16a- 16A-/	.	8ee-\	.	.	.	.	.	.	.	.	.	.	.	.	.	.
.	.	.	16a- 16A-/	.	.	.	.	.	.	.	.	.	.	.	.	.	.	.	.
8E-\	.	.	16a- 16A-/	.	8dd\	.	.	.	.	.	.	.	.	.	4r	4r	.	.	.
.	.	.	16a- 16A-/	.	.	.	.	.	.	.	.	.	.	.	.	.	.	.	.
8E-\J	.	.	16a- 16A-/	.	8cc\J)	.	.	.	.	.	.	.	.	.	.	.	.	.	.
.	.	.	16a- 16A-/JJ	.	.	.	.	.	.	.	.	.	.	.	.	.	.	.	.
!LO:LB:g=original	!	!	!	!	!	!	!	!	!	!	!	!	!	!	!	!LO:LB:g=original	!	!	!
=3	=3	=3	=3	=3	=3	=3	=3	=3	=3	=3	=3	=3	=3	=3	=3	=3	=3	=3	=3
*	*	*	*	*	*	*	*	*	*	*	*	*	*	*	*2\right	*2\right	*2\right	*2\right	*
8E-\L	.	.	16g 16G/LL	.	(8b-\L	.	4.E-\	in	4.e-\	in	4.g\	in	4.b-\	in	2e-\	2g\	2b-\	2gg\	.
.	.	.	16g 16G/	.	.	.	.	.	.	.	.	.	.	.	.	.	.	.	.
8E-\	.	.	16g 16G/	.	8ee-\)	.	.	.	.	.	.	.	.	.	.	.	.	.	.
.	.	.	16g 16G/	.	.	.	.	.	.	.	.	.	.	.	.	.	.	.	.
8E-\	.	.	16g 16G/	.	(8g/	.	.	.	.	.	.	.	.	.	.	.	.	.	.
.	.	.	16g 16G/	.	.	.	.	.	.	.	.	.	.	.	.	.	.	.	.
8E-\J	.	.	16g 16G/	.	8b-/J)	.	8E-\	prin-	8B-\	prin-	8g\	prin-	8ee-\	prin-	.	.	.	.	.
.	.	.	16g 16G/JJ	.	.	.	.	.	.	.	.	.	.	.	.	.	.	.	.
*Xtremolo	*	*	*Xtremolo	*	*	*	*	*	*	*	*	*	*	*	*	*	*	*	*
!LO:TX:t=P:problem=mixed beam	!	!	!	!	!	!	!	!	!	!	!	!	!	!	!LO:TX:t=P:problem=mixed beam	!	!	!	!
8B-\L	.	.	8g/L	.	(8b-/L	.	4B-\	-ci-	4B-\	-ci-	8b-\L	-ci-	8gg\L	-ci-	8g\L	8b-\L	8b-\L	(8gg\L	.
8B-\	.	.	8f/	.	8a-/	.	.	.	.	.	8a-\J	.	8ff\J	.	8f\	8a-\	8a-\	8ff\	.
8BB-/	.	.	8e-/	.	8g/	.	4BB-/	-pi-	4B-\	-pi-	8g\L	-pi-	8ee-\L	-pi-	8e-\	8g\	8g\	8ee-\	.
!	!	!	!	!	!	!	!	!	!	!	!	!	!	!	!LO:TX:a:t=g..	!	!	!	!
8BB-/J	.	.	8d/J	.	8f/J)	.	.	.	.	.	8f\J	.	8dd\J	.	8B-/J	8f\J	8f\J	8dd\J)	.
!	!	!	!	!	!	!	!	!	!	!	!LO:LB:g=original	!	!	!	!LO:LB:g=original	!	!	!	!
=4	=4	=4	=4	=4	=4	=4	=4	=4	=4	=4	=4	=4	=4	=4	=4	=4	=4	=4	=4
*	*	*	*tremolo	*	*	*	*	*	*	*	*	*	*	*	*	*	*	*	*
!	!	!	!	!LO:DY:t=p.	!	!	!	!	!	!	!	!	!	!	!	!	!LO:TX:a:i:t=Solo	!	!
4E-\	.	.	8e-/L	p	8g/L	p	4E-\	-o	4B-\	-o	4g\	-o	4ee-\	-o	4G/	4e-\	4.g\	4.ee-\	.
.	.	.	8e-/	.	8e-/	.	.	.	.	.	.	.	.	.	.	.	.	.	.
4r	.	.	8e-/	.	8e-/	.	4r	.	4r	.	4r	.	4r	.	4r	4r	.	.	.
.	.	.	8e-/J	.	8e-/J	.	.	.	.	.	.	.	.	.	.	.	8b-\	8gg\	.
*	*	*	*	*	*tremolo	*	*	*	*	*	*	*	*	*	*	*	*	*	*
2r	.	.	8e-/L	.	8e-/L	.	2r	.	2r	.	2r	.	2r	.	2r	2r	4.cc\	4.aa-\	.
.	.	.	8e-/	.	8e-/	.	.	.	.	.	.	.	.	.	.	.	.	.	.
.	.	.	8e-/	.	8e-/	.	.	.	.	.	.	.	.	.	.	.	.	.	.
.	.	.	8e-/J	.	8e-/J	.	.	.	.	.	.	.	.	.	.	.	8a-X\	8ff\	.
!	!	!	!LO:LB:g=original	!	!LO:LB:g=original	!	!	!	!	!	!	!	!	!	!	!	!	!	!
=5	=5	=5	=5	=5	=5	=5	=5	=5	=5	=5	=5	=5	=5	=5	=5	=5	=5	=5	=5
!	!	!	!	!	!	!	!LO:TX:b:i:t=Verte Cito	!	!	!	!	!	!	!	!	!	!	!	!
!LO:TX:a:t=1.	!	!	!	!	!	!	!LO:TX:a:t=1	!	!LO:TX:a:t=1	!	!LO:TX:a:t=1.	!	!LO:TX:a:t=1.	!	!LO:TX:a:t=1.	!LO:TX:a:t=1	!	!	!
1r	.	.	8e-/L	.	8e-/L	.	1r	.	1r	.	1r	.	1r	.	1r	1r	4.b-\	4.gg\	.
.	.	.	8e-/	.	8e-/	.	.	.	.	.	.	.	.	.	.	.	.	.	.
.	.	.	8e-/	.	8e-/	.	.	.	.	.	.	.	.	.	.	.	.	.	.
.	.	.	8e-/J	.	8e-/J	.	.	.	.	.	.	.	.	.	.	.	8g/	8ee-\	.
.	.	.	8B-/L	.	8B-/L	.	.	.	.	.	.	.	.	.	.	.	(8b-/L	8gg\L	.
.	.	.	8B-/	.	8B-/	.	.	.	.	.	.	.	.	.	.	.	8a-/	8ff\	.
.	.	.	8B-/	.	8B-/	.	.	.	.	.	.	.	.	.	.	.	8g/	8ee-\	.
.	.	.	8B-/J	.	8B-/J	.	.	.	.	.	.	.	.	.	.	.	8f/J)	8dd\J	.
*	*	*	*	*	*Xtremolo	*	*	*	*	*	*	*	*	*	*	*	*	*	*
!	!	!	!	!	!	!	!LO:PB:g=original	!	!	!	!	!	!	!	!	!	!	!	!
=6	=6	=6	=6	=6	=6	=6	=6	=6	=6	=6	=6	=6	=6	=6	=6	=6	=6	=6	=6
*tremolo	*	*	*	*	*	*	*	*	*	*	*	*	*	*	*	*	*	*	*
!	!	!	!	!LO:DY:t=f.:rj	!	!	!	!	!	!	!	!	!	!	!	!	!	!	!
8E-\L	5 3	.	16g 16G/LL	f	4.b-/	f	2E-\	Si-	2e-\	Si-	2g\	Si-	2b-\	Si-	4E-/	4e-\	2g/	2ee-\	f
.	.	.	16g 16G/	.	.	.	.	.	.	.	.	.	.	.	.	.	.	.	.
8E-\	.	.	16g 16G/	.	.	.	.	.	.	.	.	.	.	.	.	.	.	.	.
.	.	.	16g 16G/	.	.	.	.	.	.	.	.	.	.	.	.	.	.	.	.
8E-\	.	.	16g 16G/	.	.	.	.	.	.	.	.	.	.	.	8E-/L	8e-\L	.	.	.
.	.	.	16g 16G/	.	.	.	.	.	.	.	.	.	.	.	.	.	.	.	.
8E-\J	.	.	16g 16G/	.	8g/	.	.	.	.	.	.	.	.	.	8E-/J	8e-\J	.	.	.
.	.	.	16g 16G/JJ	.	.	.	.	.	.	.	.	.	.	.	.	.	.	.	.
8E-\L	.	.	16g 16G/LL	.	(8ee-\L	.	2E-\	-cut	2e-\	-cut	2g\	-cut	2b-\	-cut	4E-/	4e-\	2b-\	2gg\	.
.	.	.	16g 16G/	.	.	.	.	.	.	.	.	.	.	.	.	.	.	.	.
8E-\	.	.	16g 16G/	.	8dd\	.	.	.	.	.	.	.	.	.	.	.	.	.	.
.	.	.	16g 16G/	.	.	.	.	.	.	.	.	.	.	.	.	.	.	.	.
8E-\	.	.	16g 16G/	.	8cc\	.	.	.	.	.	.	.	.	.	4r	4r	.	.	.
.	.	.	16g 16G/	.	.	.	.	.	.	.	.	.	.	.	.	.	.	.	.
8E-\J	.	.	16g 16G/	.	8b-\J)	.	.	.	.	.	.	.	.	.	.	.	.	.	.
.	.	.	16g 16G/JJ	.	.	.	.	.	.	.	.	.	.	.	.	.	.	.	.
=7	=7	=7	=7	=7	=7	=7	=7	=7	=7	=7	=7	=7	=7	=7	=7	=7	=7	=7	=7
8E-\L	6 4	.	16a- 16A-/LL	.	4.cc\	.	2E-\	e-	2e-\	e-	2a-\	e-	2cc\	e-	4E-/	4e-\	1cc	1aa-	.
.	.	.	16a- 16A-/	.	.	.	.	.	.	.	.	.	.	.	.	.	.	.	.
8E-\	.	.	16a- 16A-/	.	.	.	.	.	.	.	.	.	.	.	.	.	.	.	.
.	.	.	16a- 16A-/	.	.	.	.	.	.	.	.	.	.	.	.	.	.	.	.
8E-\	.	.	16a- 16A-/	.	.	.	.	.	.	.	.	.	.	.	8E-/L	8e-\L	.	.	.
.	.	.	16a- 16A-/	.	.	.	.	.	.	.	.	.	.	.	.	.	.	.	.
8E-\J	.	.	16a- 16A-/	.	8a-\	.	.	.	.	.	.	.	.	.	8E-/J	8e-\J	.	.	.
.	.	.	16a- 16A-/JJ	.	.	.	.	.	.	.	.	.	.	.	.	.	.	.	.
8E-\L	.	.	16a- 16A-/LL	.	(8ff\L	.	2E-\	-rat	2e-\	-rat	2a-\	-rat	2cc\	-rat	4E-/	4e-\	.	.	.
.	.	.	16a- 16A-/	.	.	.	.	.	.	.	.	.	.	.	.	.	.	.	.
8E-\	.	.	16a- 16A-/	.	8ee-\	.	.	.	.	.	.	.	.	.	.	.	.	.	.
.	.	.	16a- 16A-/	.	.	.	.	.	.	.	.	.	.	.	.	.	.	.	.
8E-\	.	.	16a- 16A-/	.	8dd\	.	.	.	.	.	.	.	.	.	4r	4r	.	.	.
.	.	.	16a- 16A-/	.	.	.	.	.	.	.	.	.	.	.	.	.	.	.	.
8E-\J	.	.	16a- 16A-/	.	8cc\J)	.	.	.	.	.	.	.	.	.	.	.	.	.	.
.	.	.	16a- 16A-/JJ	.	.	.	.	.	.	.	.	.	.	.	.	.	.	.	.
!	!	!	!	!	!	!	!	!	!LO:LB:g=original	!	!	!	!	!	!	!	!	!	!
=8	=8	=8	=8	=8	=8	=8	=8	=8	=8	=8	=8	=8	=8	=8	=8	=8	=8	=8	=8
!	!	!	!	!	!LO:TX:t=P:problem=mixed beam	!	!	!	!	!	!	!	!	!	!	!	!	!	!
8E-\L	.	.	16g 16G/LL	.	8b-\L	.	4.E-\	in	4.e-\	in	4.g\	in	4.b-\	in	2e-\	2g\	4.b-\	2gg\	.
.	.	.	16g 16G/	.	.	.	.	.	.	.	.	.	.	.	.	.	.	.	.
8E-\	.	.	16g 16G/	.	8ee-\	.	.	.	.	.	.	.	.	.	.	.	.	.	.
.	.	.	16g 16G/	.	.	.	.	.	.	.	.	.	.	.	.	.	.	.	.
8E-\	.	.	16g 16G/	.	8g/	.	.	.	.	.	.	.	.	.	.	.	.	.	.
.	.	.	16g 16G/	.	.	.	.	.	.	.	.	.	.	.	.	.	.	.	.
8E-\J	.	.	16g 16G/	.	8b-/J	.	8E-\	prin-	8B-\	prin-	8g\	prin-	8ee-\	prin-	.	.	8ee-\	.	.
.	.	.	16g 16G/JJ	.	.	.	.	.	.	.	.	.	.	.	.	.	.	.	.
*Xtremolo	*	*	*Xtremolo	*	*	*	*	*	*	*	*	*	*	*	*	*	*	*	*
!LO:TX:t=P:problem=mixed beam	!	!	!	!	!	!	!	!	!	!	!	!	!	!	!	!	!	!	!
8B-\L	4	.	8g/L	.	8b-/L	.	4B-\	-ci-	4B-\	-ci-	8b-\L	-ci-	8gg\L	-ci-	8g\L	8b-\L	8ee-\L	8gg\L	.
8B-\	.	.	8f/	.	8a-/	.	.	.	.	.	8a-\J	.	8ff\J	.	8f\	8a-\	8dd\	8ff\	.
8BB-/	3	.	8e-/	.	8g/	.	4BB-/	-pi-	4B-\	-pi-	8g\L	-pi-	8ee-\L	-pi-	8e-\	8g\	8cc\	8ee-\	.
8BB-/J	.	.	8d/J	.	8f/J	.	.	.	.	.	8f\J	.	8dd\J	.	8B-\J	8f\J	8dd\J	8ff\J	.
!	!	!	!	!	!	!	!	!	!	!	!LO:LB:g=original	!	!	!	!	!	!LO:LB:g=original	!	!
=9	=9	=9	=9	=9	=9	=9	=9	=9	=9	=9	=9	=9	=9	=9	=9	=9	=9	=9	=9
*	*	*	*tremolo	*	*	*	*	*	*	*	*	*	*	*	*	*	*	*	*
!	!	!	!	!LO:DY:t=p.:rj	!	!	!	!	!	!	!	!	!	!	!	!	!	!LO:TX:b:i:t=Solo.:note=podkreślone	!
4E-\	.	.	8e-/L	p	8g/L	p	4E-\	-o	4B-\	-o	4g\	-o	4ee-\	-o	4G/	4e-\	4.ee-\	4.gg\	.
.	.	.	8e-/	.	8e-/	.	.	.	.	.	.	.	.	.	.	.	.	.	.
4r	.	.	8e-/	.	8e-/	.	4r	.	4r	.	4r	.	4r	.	4r	4r	.	.	.
.	.	.	8e-/J	.	8e-/J	.	.	.	.	.	.	.	.	.	.	.	8gg\	8bb-\	.
*	*	*	*	*	*tremolo	*	*	*	*	*	*	*	*	*	*	*	*	*	*
2r	.	.	8e-/L	.	8e-/L	.	2r	.	2r	.	2r	.	2r	.	2r	2r	4.aa-X\	4.ccc\	.
.	.	.	8e-/	.	8e-/	.	.	.	.	.	.	.	.	.	.	.	.	.	.
.	.	.	8e-/	.	8e-/	.	.	.	.	.	.	.	.	.	.	.	.	.	.
.	.	.	8e-/J	.	8e-/J	.	.	.	.	.	.	.	.	.	.	.	8ff\	8aa-\	.
!	!	!	!	!	!	!	!	!	!	!	!	!	!LO:PB:g=original	!	!	!LO:LB:g=original	!	!	!
=10	=10	=10	=10	=10	=10	=10	=10	=10	=10	=10	=10	=10	=10	=10	=10	=10	=10	=10	=10
!LO:TX:t=P:problem=zbędna powtórzenie w cor 1	!	!	!LO:TX:t=P:problem=zbędna powtórzenie w cor 1	!	!LO:TX:t=P:problem=zbędna powtórzenie w cor 1	!	!LO:TX:t=P:problem=zbędna powtórzenie w cor 1	!	!LO:TX:t=P:problem=zbędna powtórzenie w cor 1	!	!LO:TX:t=P:problem=zbędna powtórzenie w cor 1	!	!LO:TX:t=P:problem=zbędna powtórzenie w cor 1	!	!LO:TX:t=P:problem=zbędna powtórzenie w cor 1	!LO:TX:t=P:problem=zbędne powtórzenie taktu nr 9	!LO:TX:t=P:problem=zbędna powtórzenie w cor 1	!LO:TX:t=P:problem=zbędna powtórzenie w cor 1	!
1ryy	.	.	1ryy	.	1ryy	.	1ryy	.	1ryy	.	1ryy	.	1ryy	.	1ryy	4e-\	1ryy	1ryy	.
.	.	.	.	.	.	.	.	.	.	.	.	.	.	.	.	4r	.	.	.
.	.	.	.	.	.	.	.	.	.	.	.	.	.	.	.	2r	.	.	.
=11	=11	=11	=11	=11	=11	=11	=11	=11	=11	=11	=11	=11	=11	=11	=11	=11	=11	=11	=11
!	!	!	!	!	!	!	!	!	!	!	!	!	!LO:TX:a:t=1.	!	!	!	!	!	!
!LO:TX:a:t=1.	!	!	!	!	!	!	!LO:TX:a:t=1	!	!LO:TX:a:t=1	!	!LO:TX:a:t=1.	!	!LO:TX:b:t=1.	!	!LO:TX:a:t=1.	!LO:TX:a:t=1	!	!	!
1r	.	.	8e-/L	.	8e-/L	.	1r	.	1r	.	1r	.	1r	.	1r	1r	4.gg\	4.bb-\	.
.	.	.	8e-/	.	8e-/	.	.	.	.	.	.	.	.	.	.	.	.	.	.
.	.	.	8e-/	.	8e-/	.	.	.	.	.	.	.	.	.	.	.	.	.	.
.	.	.	8e-/J	.	8e-/J	.	.	.	.	.	.	.	.	.	.	.	8ee-\	8aa-\	.
!	!	!	!	!	!	!	!	!	!	!	!	!	!	!	!	!	!	!LO:LB:g=original	!
.	.	.	8B-/L	.	8B-/L	.	.	.	.	.	.	.	.	.	.	.	8gg\L	8bb-\L	.
.	.	.	8B-/	.	8B-/	.	.	.	.	.	.	.	.	.	.	.	8ff\	8aa-\	.
.	.	.	8B-/	.	8B-/	.	.	.	.	.	.	.	.	.	.	.	8ee-\	8gg\	.
.	.	.	8B-/J	.	8B-/J	.	.	.	.	.	.	.	.	.	.	.	8dd\J	8ff\J	.
*	*	*	*Xtremolo	*	*Xtremolo	*	*	*	*	*	*	*	*	*	*	*	*	*	*
!LO:LB:g=original	!	!	!	!	!LO:LB:g=original	!	!	!	!	!	!	!	!	!	!	!	!	!	!
=12	=12	=12	=12	=12	=12	=12	=12	=12	=12	=12	=12	=12	=12	=12	=12	=12	=12	=12	=12
*tremolo	*	*	*	*	*	*	*	*	*	*	*	*	*	*	*	*	*	*	*
!	!	!	!	!	!LO:TX:t=P:problem=mixed beam	!	!	!	!	!	!	!	!	!	!	!LO:N:vis=2	!	!	!
8E-\L	.	.	16e-/LL	f	8e-/L	.	2E-\	Si-	2B-\	Si-	2g\	Si-	2ee-\	Si-	1e-	1g	1ee-	1gg	f
.	.	.	16g/	.	.	.	.	.	.	.	.	.	.	.	.	.	.	.	.
!	!	!	!	!	!	!LO:DY:rj	!	!	!	!	!	!	!	!	!	!	!	!	!
8E-\	.	.	16g/	.	16ee-\L	f	.	.	.	.	.	.	.	.	.	.	.	.	.
.	.	.	16g/JJ	.	16ff\JJ	.	.	.	.	.	.	.	.	.	.	.	.	.	.
*	*	*	*tremolo	*	*	*	*	*	*	*	*	*	*	*	*	*	*	*	*
8E-\	.	.	16g/LL	.	8gg\L	.	.	.	.	.	.	.	.	.	.	.	.	.	.
.	.	.	16g/	.	.	.	.	.	.	.	.	.	.	.	.	.	.	.	.
8E-\J	.	.	16g/	.	8ee-\J	.	.	.	.	.	.	.	.	.	.	.	.	.	.
.	.	.	16g/JJ	.	.	.	.	.	.	.	.	.	.	.	.	.	.	.	.
8E-\L	.	.	16g/LL	.	8bb-\L	.	2E-\	-cut	2B-\	-cut	2g\	-cut	2ee-\	-cut	.	.	.	.	.
.	.	.	16g/	.	.	.	.	.	.	.	.	.	.	.	.	.	.	.	.
8E-\	.	.	16g/	.	8gg\	.	.	.	.	.	.	.	.	.	.	.	.	.	.
.	.	.	16g/	.	.	.	.	.	.	.	.	.	.	.	.	.	.	.	.
8E-\	.	.	16g/	.	8ff\	.	.	.	.	.	.	.	.	.	.	.	.	.	.
.	.	.	16g/	.	.	.	.	.	.	.	.	.	.	.	.	.	.	.	.
8E-\J	.	.	16g/	.	8ee-\J	.	.	.	.	.	.	.	.	.	.	.	.	.	.
.	.	.	16g/JJ	.	.	.	.	.	.	.	.	.	.	.	.	.	.	.	.
=13	=13	=13	=13	=13	=13	=13	=13	=13	=13	=13	=13	=13	=13	=13	=13	=13	=13	=13	=13
8BB-/L	7	.	16f/LL	.	(16dd\LL	.	2B-\	e-	2B-\	e-	2f\	e-	2dd\	e-	1f	1a-	1dd	1ff	.
.	.	.	16f/	.	16cc\	.	.	.	.	.	.	.	.	.	.	.	.	.	.
8BB-/	.	.	16f/	.	16dd\	.	.	.	.	.	.	.	.	.	.	.	.	.	.
.	.	.	16f/	.	16ee-\JJ)	.	.	.	.	.	.	.	.	.	.	.	.	.	.
8BB-/	.	.	16f/	.	8ff\L	.	.	.	.	.	.	.	.	.	.	.	.	.	.
.	.	.	16f/	.	.	.	.	.	.	.	.	.	.	.	.	.	.	.	.
8BB-/J	.	.	16f/	.	8dd\J	.	.	.	.	.	.	.	.	.	.	.	.	.	.
.	.	.	16f/JJ	.	.	.	.	.	.	.	.	.	.	.	.	.	.	.	.
8BB-/L	.	.	16f/LL	.	8aa-\L	.	2B-\	-rat	2B-\	-rat	2f\	-rat	2dd\	-rat	.	.	.	.	.
.	.	.	16f/	.	.	.	.	.	.	.	.	.	.	.	.	.	.	.	.
8BB-/	.	.	16f/	.	8ff\	.	.	.	.	.	.	.	.	.	.	.	.	.	.
.	.	.	16f/	.	.	.	.	.	.	.	.	.	.	.	.	.	.	.	.
8BB-/	.	.	16f/	.	8ee-\	.	.	.	.	.	.	.	.	.	.	.	.	.	.
.	.	.	16f/	.	.	.	.	.	.	.	.	.	.	.	.	.	.	.	.
8BB-/J	.	.	16f/	.	8dd\J	.	.	.	.	.	.	.	.	.	.	.	.	.	.
.	.	.	16f/JJ	.	.	.	.	.	.	.	.	.	.	.	.	.	.	.	.
=14	=14	=14	=14	=14	=14	=14	=14	=14	=14	=14	=14	=14	=14	=14	=14	=14	=14	=14	=14
*	*	*	*	*	*	*	*	*	*	*ij	*	*ij	*	*ij	*	*	*	*	*
8E-\L	.	.	16g/LL	.	(16ee-\LL	.	2E-\	si-	2B-\	Si-	2g\	Si-	2ee-\	Si-	1e-	1g	1ee-	1gg	.
.	.	.	16g/	.	16dd\	.	.	.	.	.	.	.	.	.	.	.	.	.	.
8E-\	.	.	16g/	.	16ee-\	.	.	.	.	.	.	.	.	.	.	.	.	.	.
.	.	.	16g/	.	16ff\JJ)	.	.	.	.	.	.	.	.	.	.	.	.	.	.
8E-\	.	.	16g/	.	8gg\L	.	.	.	.	.	.	.	.	.	.	.	.	.	.
.	.	.	16g/	.	.	.	.	.	.	.	.	.	.	.	.	.	.	.	.
8E-\J	.	.	16g/	.	8ee-\J	.	.	.	.	.	.	.	.	.	.	.	.	.	.
.	.	.	16g/JJ	.	.	.	.	.	.	.	.	.	.	.	.	.	.	.	.
8E-\L	.	.	16g/LL	.	8bb-\L	.	2E-\	-cut	2B-\	-cut	2g\	-cut	2ee-\	-cut	.	.	.	.	.
.	.	.	16g/	.	.	.	.	.	.	.	.	.	.	.	.	.	.	.	.
8E-\	.	.	16g/	.	8gg\	.	.	.	.	.	.	.	.	.	.	.	.	.	.
.	.	.	16g/	.	.	.	.	.	.	.	.	.	.	.	.	.	.	.	.
8E-\	.	.	16g/	.	8ff\	.	.	.	.	.	.	.	.	.	.	.	.	.	.
.	.	.	16g/	.	.	.	.	.	.	.	.	.	.	.	.	.	.	.	.
8E-\J	.	.	16g/	.	8ee-\J	.	.	.	.	.	.	.	.	.	.	.	.	.	.
.	.	.	16g/JJ	.	.	.	.	.	.	.	.	.	.	.	.	.	.	.	.
!	!	!	!LO:LB:g=original	!	!	!	!	!	!	!	!	!	!	!	!	!	!	!	!
=15	=15	=15	=15	=15	=15	=15	=15	=15	=15	=15	=15	=15	=15	=15	=15	=15	=15	=15	=15
8BB-/L	7	.	16f/LL	.	(16dd\LL	.	2B-\	e-	2B-\	e-	2f\	e-	2dd\	e-	1f	1a-	1dd	1ff	.
.	.	.	16f/	.	16cc\	.	.	.	.	.	.	.	.	.	.	.	.	.	.
8BB-/	.	.	16f/	.	16dd\	.	.	.	.	.	.	.	.	.	.	.	.	.	.
.	.	.	16f/	.	16ee-\JJ)	.	.	.	.	.	.	.	.	.	.	.	.	.	.
8BB-/	.	.	16f/	.	8ff\L	.	.	.	.	.	.	.	.	.	.	.	.	.	.
.	.	.	16f/	.	.	.	.	.	.	.	.	.	.	.	.	.	.	.	.
8BB-/J	.	.	16f/	.	8dd\J	.	.	.	.	.	.	.	.	.	.	.	.	.	.
.	.	.	16f/JJ	.	.	.	.	.	.	.	.	.	.	.	.	.	.	.	.
8BB-/L	.	.	16f/LL	.	8aa-\L	.	2B-\	-rat	2B-\	-rat	2f\	-rat	2dd\	-rat	.	.	.	.	.
*	*	*	*	*	*	*	*	*	*	*Xij	*	*Xij	*	*	*	*	*	*	*
.	.	.	16f/	.	.	.	.	.	.	.	.	.	.	.	.	.	.	.	.
8BB-/	.	.	16f/	.	8ff\	.	.	.	.	.	.	.	.	.	.	.	.	.	.
.	.	.	16f/	.	.	.	.	.	.	.	.	.	.	.	.	.	.	.	.
8BB-/	.	.	16f/	.	8ee-\	.	.	.	.	.	.	.	.	.	.	.	.	.	.
.	.	.	16f/	.	.	.	.	.	.	.	.	.	.	.	.	.	.	.	.
8BB-/J	.	.	16f/	.	8dd\J	.	.	.	.	.	.	.	.	.	.	.	.	.	.
.	.	.	16f/JJ	.	.	.	.	.	.	.	.	.	.	.	.	.	.	.	.
!	!	!	!	!	!LO:LB:g=original	!	!LO:LB:g=original	!	!	!	!LO:LB:g=original	!	!	!	!	!	!	!	!
=16	=16	=16	=16	=16	=16	=16	=16	=16	=16	=16	=16	=16	=16	=16	=16	=16	=16	=16	=16
8E-\L	.	.	16g/LL	.	16ee-\LL	.	2E-\	si-	2B-\	si-	2g\	Si-	2ee-\	Si-	2e-\	2g\	2ee-\	2gg\	.
.	.	.	16g/	.	16dd\	.	.	.	.	.	.	.	.	.	.	.	.	.	.
8E-\	.	.	16g/	.	16ee-\	.	.	.	.	.	.	.	.	.	.	.	.	.	.
.	.	.	16g/	.	16ff\JJ	.	.	.	.	.	.	.	.	.	.	.	.	.	.
8E-\	.	.	16g/	.	8gg\L	.	.	.	.	.	.	.	.	.	.	.	.	.	.
.	.	.	16g/	.	.	.	.	.	.	.	.	.	.	.	.	.	.	.	.
8E-\J	.	.	16g/	.	8bb-\J	.	.	.	.	.	.	.	.	.	.	.	.	.	.
.	.	.	16g/JJ	.	.	.	.	.	.	.	.	.	.	.	.	.	.	.	.
8E-\L	4 2	.	16f/LL	.	8aan\L	.	2E-\	-cut	2c\	-cut	2an\	-cut	2ff\	-cut	2f\	2aX\	2cc\	2aa\	.
.	.	.	16f/	.	.	.	.	.	.	.	.	.	.	.	.	.	.	.	.
8E-\	.	.	16f/	.	16gg\L	.	.	.	.	.	.	.	.	.	.	.	.	.	.
.	.	.	16f/	.	16aa\JJ	.	.	.	.	.	.	.	.	.	.	.	.	.	.
8E-\	.	.	16f/	.	16bb-\LL	.	.	.	.	.	.	.	.	.	.	.	.	.	.
.	.	.	16f/	.	16aa\	.	.	.	.	.	.	.	.	.	.	.	.	.	.
8E-\J	.	.	16f/	.	16gg\	.	.	.	.	.	.	.	.	.	.	.	.	.	.
.	.	.	16f/JJ	.	16aa\JJ	.	.	.	.	.	.	.	.	.	.	.	.	.	.
=17	=17	=17	=17	=17	=17	=17	=17	=17	=17	=17	=17	=17	=17	=17	=17	=17	=17	=17	=17
8D\L	6	.	16B-/LL	.	8bb-\L	.	2D\	e-	2d\	e-	2b-\	e-	2ff\	e-	1B-	2b-\	1dd	2bb-\	.
.	.	.	16B-/	.	.	.	.	.	.	.	.	.	.	.	.	.	.	.	.
8D\	.	.	16B-/	.	16ff\L	.	.	.	.	.	.	.	.	.	.	.	.	.	.
.	.	.	16B-/	.	16bb-\JJ	.	.	.	.	.	.	.	.	.	.	.	.	.	.
8D\	.	.	16B-/	.	8ff\L	.	.	.	.	.	.	.	.	.	.	.	.	.	.
.	.	.	16B-/	.	.	.	.	.	.	.	.	.	.	.	.	.	.	.	.
8D\J	.	.	16B-/	.	8dd\J	.	.	.	.	.	.	.	.	.	.	.	.	.	.
.	.	.	16B-/JJ	.	.	.	.	.	.	.	.	.	.	.	.	.	.	.	.
8D\L	.	.	16B-/LL	.	8b-\L	.	2D\	-rat,	2d\	-rat	2b-\	-rat	2ff\	-rat	.	2f\	.	2ff\	.
*	*	*	*	*	*	*	*	*	*	*	*	*	*	*Xij	*	*	*	*	*
.	.	.	16B-/	.	.	.	.	.	.	.	.	.	.	.	.	.	.	.	.
8D\	.	.	16B-/	.	8dd\	.	.	.	.	.	.	.	.	.	.	.	.	.	.
.	.	.	16B-/	.	.	.	.	.	.	.	.	.	.	.	.	.	.	.	.
8D\	.	.	16B-/	.	8ff\	.	.	.	.	.	.	.	.	.	.	.	.	.	.
.	.	.	16B-/	.	.	.	.	.	.	.	.	.	.	.	.	.	.	.	.
8D\J	.	.	16B-/	.	8bb-\J	.	.	.	.	.	.	.	.	.	.	.	.	.	.
.	.	.	16B-/JJ	.	.	.	.	.	.	.	.	.	.	.	.	.	.	.	.
!	!	!	!	!	!	!	!	!	!	!	!	!	!	!	!LO:LB:g=original	!	!	!	!
=18	=18	=18	=18	=18	=18	=18	=18	=18	=18	=18	=18	=18	=18	=18	=18	=18	=18	=18	=18
8BB-/L	.	.	16d/LL	.	8gg\L	.	2B-\	in	2d\	in	2f\	in	2dd\	in	4B-/	4f\	1b-	1dd	.
.	.	.	16d/	.	.	.	.	.	.	.	.	.	.	.	.	.	.	.	.
8BB-/	.	.	16d/	.	8ff\J	.	.	.	.	.	.	.	.	.	.	.	.	.	.
.	.	.	16d/	.	.	.	.	.	.	.	.	.	.	.	.	.	.	.	.
8BB-/	.	.	16d/	.	4ff\	.	.	.	.	.	.	.	.	.	8B-/L	8f\L	.	.	.
.	.	.	16d/	.	.	.	.	.	.	.	.	.	.	.	.	.	.	.	.
8BB-/J	.	.	16d/	.	.	.	.	.	.	.	.	.	.	.	8B-/J	8f\J	.	.	.
.	.	.	16d/JJ	.	.	.	.	.	.	.	.	.	.	.	.	.	.	.	.
8BB-/L	.	.	16d/LL	.	8r	.	2B-\	prin-	2d\	prin-	2f\	prin-	2dd\	prin-	4B-/	4f\	.	.	.
.	.	.	16d/	.	.	.	.	.	.	.	.	.	.	.	.	.	.	.	.
8BB-/	.	.	16d/	.	(8dd\L	.	.	.	.	.	.	.	.	.	.	.	.	.	.
.	.	.	16d/	.	.	.	.	.	.	.	.	.	.	.	.	.	.	.	.
8BB-/	.	.	16d/	.	8ee-\	.	.	.	.	.	.	.	.	.	4r	4r	.	.	.
.	.	.	16d/	.	.	.	.	.	.	.	.	.	.	.	.	.	.	.	.
8BB-/J	.	.	16d/	.	8ff\J)	.	.	.	.	.	.	.	.	.	.	.	.	.	.
.	.	.	16d/JJ	.	.	.	.	.	.	.	.	.	.	.	.	.	.	.	.
=19	=19	=19	=19	=19	=19	=19	=19	=19	=19	=19	=19	=19	=19	=19	=19	=19	=19	=19	=19
8F\L	n	.	16c/LL	.	16ff\LL	.	2.F\	-ci-	2.e-\	-ci-	2.a-\	-ci-	2.cc\	-ci-	4f\	4f\	1cc	1ee-	.
.	.	.	16c/	.	16ee-\	.	.	.	.	.	.	.	.	.	.	.	.	.	.
8F\	.	.	16c/	.	16dd\	.	.	.	.	.	.	.	.	.	.	.	.	.	.
.	.	.	16c/	.	16ee-\JJ	.	.	.	.	.	.	.	.	.	.	.	.	.	.
8F\	.	.	16c/	.	4.cc\	.	.	.	.	.	.	.	.	.	8f\L	8f\L	.	.	.
.	.	.	16c/	.	.	.	.	.	.	.	.	.	.	.	.	.	.	.	.
8F\J	.	.	16c/	.	.	.	.	.	.	.	.	.	.	.	8f\J	8f\J	.	.	.
.	.	.	16c/JJ	.	.	.	.	.	.	.	.	.	.	.	.	.	.	.	.
8F\L	.	.	16c/LL	.	.	.	.	.	.	.	.	.	.	.	4f\	4f\	.	.	.
.	.	.	16c/	.	.	.	.	.	.	.	.	.	.	.	.	.	.	.	.
8F\	.	.	16c/	.	8ee-\L	.	.	.	.	.	.	.	.	.	.	.	.	.	.
.	.	.	16c/	.	.	.	.	.	.	.	.	.	.	.	.	.	.	.	.
8F\	.	.	16c/	.	8cc\	.	4F\	-pi-	4e-\	-pi-	4a-\	-pi-	4cc\	-pi-	4r	4r	.	.	.
.	.	.	16c/	.	.	.	.	.	.	.	.	.	.	.	.	.	.	.	.
8F\J	.	.	16c/	.	8an\J	.	.	.	.	.	.	.	.	.	.	.	.	.	.
.	.	.	16c/JJ	.	.	.	.	.	.	.	.	.	.	.	.	.	.	.	.
!	!	!	!	!	!LO:LB:g=original	!	!	!	!	!	!	!	!LO:LB:g=original	!	!	!LO:LB:g=original	!	!	!
=20	=20	=20	=20	=20	=20	=20	=20	=20	=20	=20	=20	=20	=20	=20	=20	=20	=20	=20	=20
8BB-/L	.	.	16d/LL	.	16b-\LL	.	2B-\	-o	2d\	-o	2f\	-o	2dd\	-o	4B-/	4f\	1b-	1dd	.
.	.	.	16d/	.	16cc\	.	.	.	.	.	.	.	.	.	.	.	.	.	.
8BB-/	.	.	16d/	.	16dd\	.	.	.	.	.	.	.	.	.	.	.	.	.	.
.	.	.	16d/	.	16b-\JJ	.	.	.	.	.	.	.	.	.	.	.	.	.	.
8BB-/	.	.	16d/	.	4f/	.	.	.	.	.	.	.	.	.	8B-/L	8f\L	.	.	.
.	.	.	16d/	.	.	.	.	.	.	.	.	.	.	.	.	.	.	.	.
8BB-/J	.	.	16d/	.	.	.	.	.	.	.	.	.	.	.	8B-/J	8f\J	.	.	.
.	.	.	16d/JJ	.	.	.	.	.	.	.	.	.	.	.	.	.	.	.	.
*	*	*	*	*	*	*	*	*	*	*	*	*	*	*ij	*	*	*	*	*
8BB-/L	.	.	16d/LL	.	8r	.	4B-\	in	4d\	in	4f\	in	4dd\	in	4B-/	4f\	.	.	.
.	.	.	16d/	.	.	.	.	.	.	.	.	.	.	.	.	.	.	.	.
8BB-/	.	.	16d/	.	8b-\L	.	.	.	.	.	.	.	.	.	.	.	.	.	.
.	.	.	16d/	.	.	.	.	.	.	.	.	.	.	.	.	.	.	.	.
8BB-/	.	.	16d/	.	8dd\	.	4B-\	prin-	4d\	prin-	4f\	prin-	4dd\	prin-	4r	4r	.	.	.
.	.	.	16d/	.	.	.	.	.	.	.	.	.	.	.	.	.	.	.	.
8BB-/J	.	.	16d/	.	8ff\J	.	.	.	.	.	.	.	.	.	.	.	.	.	.
.	.	.	16d/JJ	.	.	.	.	.	.	.	.	.	.	.	.	.	.	.	.
!LO:LB:g=original	!	!	!	!	!	!	!	!	!LO:LB:g=original	!	!	!	!	!	!	!	!	!	!
=21	=21	=21	=21	=21	=21	=21	=21	=21	=21	=21	=21	=21	=21	=21	=21	=21	=21	=21	=21
8FL	n	.	16c/LL	.	(16ff\LL	.	2.F\	-ci-	2.e-\	-ci-	2.an\	-ci-	2.cc\	-ci-	4f\	4f\	1cc	1ee-	.
.	.	.	16c/	.	16ee-\	.	.	.	.	.	.	.	.	.	.	.	.	.	.
8F	.	.	16c/	.	16dd\	.	.	.	.	.	.	.	.	.	.	.	.	.	.
.	.	.	16c/	.	16ee-\JJ)	.	.	.	.	.	.	.	.	.	.	.	.	.	.
8F	.	.	16c/	.	4.cc\	.	.	.	.	.	.	.	.	.	8f\L	8f\L	.	.	.
.	.	.	16c/	.	.	.	.	.	.	.	.	.	.	.	.	.	.	.	.
8F	.	.	16c/	.	.	.	.	.	.	.	.	.	.	.	8f\J	8f\J	.	.	.
.	.	.	16c/JJ	.	.	.	.	.	.	.	.	.	.	.	.	.	.	.	.
8F	.	.	16c/LL	.	.	.	.	.	.	.	.	.	.	.	4f\	4f\	.	.	.
.	.	.	16c/	.	.	.	.	.	.	.	.	.	.	.	.	.	.	.	.
8F	.	.	16c/	.	8ee-\L	.	.	.	.	.	.	.	.	.	.	.	.	.	.
.	.	.	16c/	.	.	.	.	.	.	.	.	.	.	.	.	.	.	.	.
8F	.	.	16c/	.	8cc\	.	4F\	-pi-	4e-\	-pi-	4a\	-pi-	4cc\	-pi-	4f\	4f\	.	.	.
.	.	.	16c/	.	.	.	.	.	.	.	.	.	.	.	.	.	.	.	.
8FJ	.	.	16c/	.	8an\J	.	.	.	.	.	.	.	.	.	.	.	.	.	.
.	.	.	16c/JJ	.	.	.	.	.	.	.	.	.	.	.	.	.	.	.	.
*Xtremolo	*	*	*Xtremolo	*	*	*	*	*	*	*	*	*	*	*	*	*	*	*	*
!	!	!	!	!	!	!	!	!	!	!	!LO:LB:g=original	!	!	!	!	!	!	!	!
=22	=22	=22	=22	=22	=22	=22	=22	=22	=22	=22	=22	=22	=22	=22	=22	=22	=22	=22	=22
4BB-/	.	.	(16d/LL	.	16b-\LL	.	4BB-/	-o	4d\	-o	4f\	-o.	4dd\	-o	4B-/	4f\	4b-\	4dd\	.
*	*	*	*	*	*	*	*	*	*	*	*	*	*	*Xij	*	*	*	*	*
.	.	.	16e-/	.	16cc\	.	.	.	.	.	.	.	.	.	.	.	.	.	.
.	.	.	16f/	.	16dd\	.	.	.	.	.	.	.	.	.	.	.	.	.	.
.	.	.	16e-/JJ)	.	16cc\JJ	.	.	.	.	.	.	.	.	.	.	.	.	.	.
!	!	!	!LO:TX:t=P:problem=mixed beam	!	!	!	!	!	!	!	!	!	!	!	!	!	!	!	!
4r	.	.	8d/L	.	8b-\L	.	4r	.	4r	.	4r	.	4r	.	4r	4r	4r	4r	.
.	.	.	8b-\J	.	8b-\J	.	.	.	.	.	.	.	.	.	.	.	.	.	.
2r	.	.	16an\LL	.	16cc\LL	.	2r	.	2r	.	2r	.	2r	.	2r	2r	2r	2r	.
.	.	.	16b-\J	.	16dd\J	.	.	.	.	.	.	.	.	.	.	.	.	.	.
.	.	.	8cc\J	.	8ee-\J	.	.	.	.	.	.	.	.	.	.	.	.	.	.
.	.	.	8dd\L	.	8ff\L	.	.	.	.	.	.	.	.	.	.	.	.	.	.
.	.	.	8ee-\J	.	8gg\J	.	.	.	.	.	.	.	.	.	.	.	.	.	.
=23	=23	=23	=23	=23	=23	=23	=23	=23	=23	=23	=23	=23	=23	=23	=23	=23	=23	=23	=23
!LO:TX:a:t=1.	!	!	!	!	!	!	!	!	!LO:TX:a:t=1	!	!LO:TX:a:t=1.	!	!LO:TX:a:t=1.	!	!LO:TX:b:i:t=Solo.	!LO:N:vis=2	!LO:TX:a:i:t=Solo	!	!
1r	.	.	4ff\	.	4aa-X\	.	1r	.	1r	.	1r	.	1r	.	1f	1a-	1ff	1aa-	.
.	.	.	4r	.	4r	.	.	.	.	.	.	.	.	.	.	.	.	.	.
.	.	.	2r	.	2r	.	.	.	.	.	.	.	.	.	.	.	.	.	.
!	!	!	!LO:LB:g=original	!	!	!	!	!	!	!	!	!	!	!	!	!	!	!	!
=24	=24	=24	=24	=24	=24	=24	=24	=24	=24	=24	=24	=24	=24	=24	=24	=24	=24	=24	=24
!	!	!	!	!	!LO:TX:a:t=1.	!	!	!	!	!	!	!	!LO:TX:b:t=1.	!	!	!	!	!	!
1r;	.	.	1r;	.	1r;	.	1r;	.	1r;	.	1r;	.	1r;	.	4f;\	4a-;\	4ff;\	4aa-;\	.
.	.	.	.	.	.	.	.	.	.	.	.	.	.	.	4r	4r	4r	4r	.
.	.	.	.	.	.	.	.	.	.	.	.	.	.	.	2r	2r	2r	2r	.
!	!	!	!	!	!LO:LB:g=original	!	!	!	!	!	!	!	!	!	!	!	!	!	!
=25	=25	=25	=25	=25	=25	=25	=25	=25	=25	=25	=25	=25	=25	=25	=25	=25	=25	=25	=25
*	*	*	*tremolo	*	*	*	*	*	*	*	*	*	*	*	*	*	*	*	*
!LO:TX:a:t=7.	!	!	!	!LO:DY:t=p.:rj	!	!LO:DY:rj	!LO:TX:a:t=7	!	!LO:TX:a:t=7	!	!LO:TX:a:t=7.	!	!LO:TX:b:t=7	!	!LO:TX:a:t=6.	!LO:TX:a:t=6	!	!LO:TX:b:i:t=Solo.:note=podkreślone	!
00r	.	.	8B-/L	p	8B-/L	p	00r	.	00r	.	00r	.	00r	.	00r	00r	4.ff\	(4.aa-\	.
.	.	.	8B-/	.	8B-/	.	.	.	.	.	.	.	.	.	.	.	.	.	.
.	.	.	8B-/	.	8B-/	.	.	.	.	.	.	.	.	.	.	.	.	.	.
.	.	.	8B-/J	.	8B-/J	.	.	.	.	.	.	.	.	.	.	.	8ee-\	8gg\)	.
*	*	*	*	*	*tremolo	*	*	*	*	*	*	*	*	*	*	*	*	*	*
.	.	.	8B-/L	.	8B-/L	.	.	.	.	.	.	.	.	.	.	.	(8dd\L	8ff\L	.
.	.	.	8B-/	.	8B-/	.	.	.	.	.	.	.	.	.	.	.	8cc\	8ee-\	.
.	.	.	8B-/	.	8B-/	.	.	.	.	.	.	.	.	.	.	.	8dd\	8ff\	.
.	.	.	8B-/J	.	8B-/J	.	.	.	.	.	.	.	.	.	.	.	8ee-\J)	8gg\J	.
!	!	!	!	!	!	!	!	!	!	!	!	!	!	!	!	!	!LO:LB:g=original	!	!
=26	=26	=26	=26	=26	=26	=26	=26	=26	=26	=26	=26	=26	=26	=26	=26	=26	=26	=26	=26
.	.	.	8B-/L	.	8B-/L	.	.	.	.	.	.	.	.	.	.	.	4.ff\	(4.aa-\	.
.	.	.	8B-/	.	8B-/	.	.	.	.	.	.	.	.	.	.	.	.	.	.
.	.	.	8B-/	.	8B-/	.	.	.	.	.	.	.	.	.	.	.	.	.	.
.	.	.	8B-/J	.	8B-/J	.	.	.	.	.	.	.	.	.	.	.	8ee-\	8gg\)	.
.	.	.	8B-/L	.	8B-/L	.	.	.	.	.	.	.	.	.	.	.	4dd\	4ff\	.
.	.	.	8B-/	.	8B-/	.	.	.	.	.	.	.	.	.	.	.	.	.	.
.	.	.	8B-/	.	8B-/	.	.	.	.	.	.	.	.	.	.	.	4r	4r	.
.	.	.	8B-/J	.	8B-/J	.	.	.	.	.	.	.	.	.	.	.	.	.	.
=27	=27	=27	=27	=27	=27	=27	=27	=27	=27	=27	=27	=27	=27	=27	=27	=27	=27	=27	=27
.	.	.	8e-/L	.	8e-/L	.	.	.	.	.	.	.	.	.	.	.	4.gg\	(4.bb-\	.
.	.	.	8e-/	.	8e-/	.	.	.	.	.	.	.	.	.	.	.	.	.	.
.	.	.	8e-/	.	8e-/	.	.	.	.	.	.	.	.	.	.	.	.	.	.
.	.	.	8e-/J	.	8e-/J	.	.	.	.	.	.	.	.	.	.	.	8ff\	8aa-\)	.
!	!	!	!	!	!	!	!	!	!	!	!	!	!	!	!	!	!	!LO:LB:g=original	!
.	.	.	8e-/L	.	8e-/L	.	.	.	.	.	.	.	.	.	.	.	8ee-\L	8gg'\L	.
.	.	.	8e-/	.	8e-/	.	.	.	.	.	.	.	.	.	.	.	8dd\	8ff'\	.
.	.	.	8e-/	.	8e-/	.	.	.	.	.	.	.	.	.	.	.	8ee-\	8gg'\	.
.	.	.	8e-/J	.	8e-/J	.	.	.	.	.	.	.	.	.	.	.	8ff\J	8aa-'\J	.
=28	=28	=28	=28	=28	=28	=28	=28	=28	=28	=28	=28	=28	=28	=28	=28	=28	=28	=28	=28
.	.	.	8e-/L	.	8e-/L	.	.	.	.	.	.	.	.	.	.	.	4.gg\	(4.bb-\	.
.	.	.	8e-/	.	8e-/	.	.	.	.	.	.	.	.	.	.	.	.	.	.
.	.	.	8e-/	.	8e-/	.	.	.	.	.	.	.	.	.	.	.	.	.	.
.	.	.	8e-/J	.	8e-/J	.	.	.	.	.	.	.	.	.	.	.	8ff\	8aa-\)	.
.	.	.	8e-/L	.	8e-/L	.	.	.	.	.	.	.	.	.	.	.	4ee-\	4gg\	.
.	.	.	8e-/	.	8e-/	.	.	.	.	.	.	.	.	.	.	.	.	.	.
.	.	.	8e-/	.	8e-/	.	.	.	.	.	.	.	.	.	.	.	4r	4r	.
.	.	.	8e-/J	.	8e-/J	.	.	.	.	.	.	.	.	.	.	.	.	.	.
*	*	*	*Xtremolo	*	*Xtremolo	*	*	*	*	*	*	*	*	*	*	*	*	*	*
=29	=29	=29	=29	=29	=29	=29	=29	=29	=29	=29	=29	=29	=29	=29	=29	=29	=29	=29	=29
0r	.	.	8B-/L	.	8B-/L	.	0r	.	0r	.	0r	.	0r	.	0r	0r	4.dd\	(4.ff\	.
.	.	.	8B-/	.	8B-/	.	.	.	.	.	.	.	.	.	.	.	.	.	.
.	.	.	8d/	.	8d/	.	.	.	.	.	.	.	.	.	.	.	.	.	.
.	.	.	8f/J	.	8f/J	.	.	.	.	.	.	.	.	.	.	.	8cc\	8ee-\)	.
.	.	.	4B-/	.	4B-/	.	.	.	.	.	.	.	.	.	.	.	8b-\L	8dd'\L	.
.	.	.	.	.	.	.	.	.	.	.	.	.	.	.	.	.	8a\	8cc'\	.
.	.	.	4r	.	4r	.	.	.	.	.	.	.	.	.	.	.	8b-\	8dd'\	.
.	.	.	.	.	.	.	.	.	.	.	.	.	.	.	.	.	8cc\J	8ee-'\J	.
=30	=30	=30	=30	=30	=30	=30	=30	=30	=30	=30	=30	=30	=30	=30	=30	=30	=30	=30	=30
.	.	.	2r	.	2r	.	.	.	.	.	.	.	.	.	.	.	8dd\L	8ff\L	.
.	.	.	.	.	.	.	.	.	.	.	.	.	.	.	.	.	8ee-\	8gg\	.
.	.	.	.	.	.	.	.	.	.	.	.	.	.	.	.	.	8ff\	8aa-\	.
.	.	.	.	.	.	.	.	.	.	.	.	.	.	.	.	.	8gg\J	8bb-\J	.
.	.	.	8r	.	8r	.	.	.	.	.	.	.	.	.	.	.	4.aa-X\	4.ccc\	.
.	.	.	8e-/L	.	8f/L	.	.	.	.	.	.	.	.	.	.	.	.	.	.
.	.	.	8f/	.	8d/	.	.	.	.	.	.	.	.	.	.	.	.	.	.
.	.	.	8g/J	.	8e-/J	.	.	.	.	.	.	.	.	.	.	.	8gg\	8bb-\	.
=31	=31	=31	=31	=31	=31	=31	=31	=31	=31	=31	=31	=31	=31	=31	=31	=31	=31	=31	=31
!	!	!	!	!	!	!	!	!	!	!	!	!	!	!	!	!	!LO:TX:t=P:problem=mixed beam	!	!
1r	.	.	8a-/L	.	8a-/L	.	1r	.	1r	.	1r	.	1r	.	4r	4r	8ff\L	8aa-'\L	.
.	.	.	8a-/	.	8a-/	.	.	.	.	.	.	.	.	.	.	.	8ee-\	8gg'\	.
!	!	!	!	!	!	!	!	!	!	!	!	!	!	!	!LO:TX:a:i:t=Solo.	!	!	!	!
.	.	.	8A-/	.	8A-/	.	.	.	.	.	.	.	.	.	8a-\L	8cc\L	8ff\	8aa-'\	.
.	.	.	8A-/J	.	8A-/J	.	.	.	.	.	.	.	.	.	8f\J	8a-\J	8a-X/J	8ff'\J	.
*	*	*	*tremolo	*	*	*	*	*	*	*	*	*	*	*	*	*	*	*	*
!	!	!	!	!	!LO:LB:g=original	!	!	!	!	!	!	!	!	!	!	!	!	!	!
.	.	.	8B-/L	.	8B-/L	.	.	.	.	.	.	.	.	.	8f\L	8a-\L	(8a-/L	(8ff\L	.
.	.	.	8B-/	.	8B-/	.	.	.	.	.	.	.	.	.	8e-\	8g\	8g/)	8ee-\)	.
.	.	.	8B-/	.	8B-/	.	.	.	.	.	.	.	.	.	8e-\	8g\	(8g/	(8ee-\	.
.	.	.	8B-/J	.	8B-/J	.	.	.	.	.	.	.	.	.	8B-\J	8f\J	8f/J)	8dd\J)	.
!	!	!	!	!	!	!	!	!	!	!	!	!	!	!	!LO:LB:g=original	!LO:LB:g=original	!	!	!
=32	=32	=32	=32	=32	=32	=32	=32	=32	=32	=32	=32	=32	=32	=32	=32	=32	=32	=32	=32
*tremolo	*	*	*	*	*	*	*	*	*	*	*	*	*	*	*	*	*	*	*
!	!	!LO:DY:t=f..	!	!LO:DY:t=for.	!LO:TX:t=P:problem=mixed beam	!	!	!	!	!	!	!	!	!	!	!	!	!	!
8E-\L	.	f	16g/LL	f	8e-\L	f	2E-/	et	2B-\	et	2g\	Et	2ee-\	et	1G	1e-	2g/	2ee-\	f
.	.	.	16g/	.	.	.	.	.	.	.	.	.	.	.	.	.	.	.	.
8E-\	.	.	16g/	.	16gg\L	.	.	.	.	.	.	.	.	.	.	.	.	.	.
.	.	.	16g/	.	16ff\JJ	.	.	.	.	.	.	.	.	.	.	.	.	.	.
!	!	!	!	!	!LO:TX:t=P:problem=mixed beam	!	!	!	!	!	!	!	!	!	!	!	!	!	!
8E-\	.	.	16g/	.	8ee-\L	.	.	.	.	.	.	.	.	.	.	.	.	.	.
.	.	.	16g/	.	.	.	.	.	.	.	.	.	.	.	.	.	.	.	.
8E-\J	.	.	16g/	.	8e-/J	.	.	.	.	.	.	.	.	.	.	.	.	.	.
.	.	.	16g/JJ	.	.	.	.	.	.	.	.	.	.	.	.	.	.	.	.
8E-\L	.	.	16g/LL	.	8g\L	.	4E-\	nunc	4B-\	nunc	4g\	nunc	4ee-\	nunc	.	.	2ee-\	2gg\	.
.	.	.	16g/	.	.	.	.	.	.	.	.	.	.	.	.	.	.	.	.
8E-\	.	.	16g/	.	8b-\	.	.	.	.	.	.	.	.	.	.	.	.	.	.
.	.	.	16g/	.	.	.	.	.	.	.	.	.	.	.	.	.	.	.	.
8E-\	.	.	16g/	.	8ee-\	.	4E-\	et	4B-\	et	4g\	et	4ee-\	et	.	.	.	.	.
.	.	.	16g/	.	.	.	.	.	.	.	.	.	.	.	.	.	.	.	.
8E-\J	.	.	16g/	.	8gg\J	.	.	.	.	.	.	.	.	.	.	.	.	.	.
.	.	.	16g/JJ	.	.	.	.	.	.	.	.	.	.	.	.	.	.	.	.
!	!	!	!	!	!	!	!LO:LB:g=original	!	!	!	!	!	!	!	!	!	!	!	!
=33	=33	=33	=33	=33	=33	=33	=33	=33	=33	=33	=33	=33	=33	=33	=33	=33	=33	=33	=33
8E-\L	6	.	16G/LL	.	8bb-\L	.	2E-\	sem-	2B-\	sem-	2g\	Se(m)-	2ee-\	sem-	2E-/	2e-\	1b-	1gg	.
.	.	.	16G/	.	.	.	.	.	.	.	.	.	.	.	.	.	.	.	.
8E-\	.	.	16G/	.	8gg\	.	.	.	.	.	.	.	.	.	.	.	.	.	.
.	.	.	16G/	.	.	.	.	.	.	.	.	.	.	.	.	.	.	.	.
8E-\	.	.	16G/	.	8bb-\	.	.	.	.	.	.	.	.	.	.	.	.	.	.
.	.	.	16G/	.	.	.	.	.	.	.	.	.	.	.	.	.	.	.	.
8E-\J	.	.	16G/	.	8gg\J	.	.	.	.	.	.	.	.	.	.	.	.	.	.
.	.	.	16G/JJ	.	.	.	.	.	.	.	.	.	.	.	.	.	.	.	.
8G\L	-5	.	16G/LL	.	4.ee-\	.	2G\	-per	2B-\	-per	2b-\	-per	2ee-\	-per	4E-/	4e-\	.	.	.
.	.	.	16G/	.	.	.	.	.	.	.	.	.	.	.	.	.	.	.	.
8G\	.	.	16G/	.	.	.	.	.	.	.	.	.	.	.	.	.	.	.	.
.	.	.	16G/	.	.	.	.	.	.	.	.	.	.	.	.	.	.	.	.
8G\	.	.	16G/	.	.	.	.	.	.	.	.	.	.	.	8E-/L	8e-\L	.	.	.
.	.	.	16G/	.	.	.	.	.	.	.	.	.	.	.	.	.	.	.	.
8G\J	.	.	16G/	.	8dd-X\	.	.	.	.	.	.	.	.	.	8E-/J	8e-\J	.	.	.
.	.	.	16G/JJ	.	.	.	.	.	.	.	.	.	.	.	.	.	.	.	.
!	!	!	!LO:LB:g=original	!	!	!	!	!	!	!	!	!	!	!	!	!	!	!	!
=34	=34	=34	=34	=34	=34	=34	=34	=34	=34	=34	=34	=34	=34	=34	=34	=34	=34	=34	=34
8A-\L	.	.	16e-/LL	.	(16cc\LL	.	2A-\	et	2c\	et	2a-\	et	2ee-\	et	1E-	1e-	1cc	1ee-	.
!	!	!	!	!	!LO:SIC:v:s=16dd-\	!	!	!	!	!	!	!	!	!	!	!	!	!	!
.	.	.	16e-/	.	16dd\	.	.	.	.	.	.	.	.	.	.	.	.	.	.
8A-\	.	.	16e-/	.	16ee-\	.	.	.	.	.	.	.	.	.	.	.	.	.	.
!	!	!	!	!	!LO:SIC:v:s=16dd-\JJ)	!	!	!	!	!	!	!	!	!	!	!	!	!	!
.	.	.	16e-/	.	16dd\JJ)	.	.	.	.	.	.	.	.	.	.	.	.	.	.
!	!	!	!	!	!LO:TX:t=P:problem=mixed beam	!	!	!	!	!	!	!	!	!	!	!	!	!	!
8A-\	.	.	16e-/	.	8cc\L	.	.	.	.	.	.	.	.	.	.	.	.	.	.
.	.	.	16e-/	.	.	.	.	.	.	.	.	.	.	.	.	.	.	.	.
8A-\J	.	.	16e-/	.	8c/J	.	.	.	.	.	.	.	.	.	.	.	.	.	.
.	.	.	16e-/JJ	.	.	.	.	.	.	.	.	.	.	.	.	.	.	.	.
!	!	!	!	!	!LO:TX:t=P:problem=mixed beam	!	!	!	!	!	!	!	!	!	!	!	!	!	!
8A-\L	.	.	16e-/LL	.	8e-/L	.	2A-\	in	2c\	in	2a-\	in	2ee-\	in	.	.	.	.	.
.	.	.	16e-/	.	.	.	.	.	.	.	.	.	.	.	.	.	.	.	.
8A-\	.	.	16e-/	.	8cc\	.	.	.	.	.	.	.	.	.	.	.	.	.	.
.	.	.	16e-/	.	.	.	.	.	.	.	.	.	.	.	.	.	.	.	.
8A-\	.	.	16e-/	.	8ee-\	.	.	.	.	.	.	.	.	.	.	.	.	.	.
.	.	.	16e-/	.	.	.	.	.	.	.	.	.	.	.	.	.	.	.	.
8A-\J	.	.	16e-/	.	8cc\J	.	.	.	.	.	.	.	.	.	.	.	.	.	.
.	.	.	16e-/JJ	.	.	.	.	.	.	.	.	.	.	.	.	.	.	.	.
!	!	!	!	!	!	!	!	!	!	!	!LO:LB:g=original	!	!LO:LB:g=original	!	!	!	!	!	!
=35	=35	=35	=35	=35	=35	=35	=35	=35	=35	=35	=35	=35	=35	=35	=35	=35	=35	=35	=35
8A-\L	.	.	16e-/LL	.	8a-/L	.	2.A-\	Sae-	2.c\	sae-	2.a-\	Se-	2.ee-\	Se-	1E-	1e-	1cc	1ee-	.
.	.	.	16e-/	.	.	.	.	.	.	.	.	.	.	.	.	.	.	.	.
8A-\	.	.	16e-/	.	16e-/L	.	.	.	.	.	.	.	.	.	.	.	.	.	.
.	.	.	16e-/	.	16f/JJ	.	.	.	.	.	.	.	.	.	.	.	.	.	.
8A-\	.	.	16e-/	.	8e-/L	.	.	.	.	.	.	.	.	.	.	.	.	.	.
.	.	.	16e-/	.	.	.	.	.	.	.	.	.	.	.	.	.	.	.	.
8A-\J	.	.	16e-/	.	8a-/J	.	.	.	.	.	.	.	.	.	.	.	.	.	.
.	.	.	16e-/JJ	.	.	.	.	.	.	.	.	.	.	.	.	.	.	.	.
!	!	!	!	!	!LO:LB:g=original	!	!	!	!	!	!	!	!	!	!	!	!	!	!
8A-\L	.	.	16e-/LL	.	8cc\L	.	.	.	.	.	.	.	.	.	.	.	.	.	.
.	.	.	16e-/	.	.	.	.	.	.	.	.	.	.	.	.	.	.	.	.
8A-\	.	.	16e-/	.	8ee-\	.	.	.	.	.	.	.	.	.	.	.	.	.	.
.	.	.	16e-/	.	.	.	.	.	.	.	.	.	.	.	.	.	.	.	.
8A-\	.	.	16e-/	.	8cc\	.	4A-\	-cu-	4c\	-cu-	4a-\	-cu-	4ee-\	-cu-	.	.	.	.	.
.	.	.	16e-/	.	.	.	.	.	.	.	.	.	.	.	.	.	.	.	.
8A-\J	.	.	16e-/	.	8a-\J	.	.	.	.	.	.	.	.	.	.	.	.	.	.
.	.	.	16e-/JJ	.	.	.	.	.	.	.	.	.	.	.	.	.	.	.	.
=36	=36	=36	=36	=36	=36	=36	=36	=36	=36	=36	=36	=36	=36	=36	=36	=36	=36	=36	=36
8GL	.	.	16B-/LL	.	16e-/LL	.	2G\	-la	2B-\	-la	2b-\	-a	2ee-\	-a	1E-	1e-	1b-	1ee-	.
.	.	.	16B-/	.	16f/	.	.	.	.	.	.	.	.	.	.	.	.	.	.
8G	.	.	16B-/	.	16g/	.	.	.	.	.	.	.	.	.	.	.	.	.	.
.	.	.	16B-/	.	16f/JJ	.	.	.	.	.	.	.	.	.	.	.	.	.	.
8G	.	.	16B-/	.	8e-/L	.	.	.	.	.	.	.	.	.	.	.	.	.	.
.	.	.	16B-/	.	.	.	.	.	.	.	.	.	.	.	.	.	.	.	.
8G	.	.	16B-/	.	8B-/J	.	.	.	.	.	.	.	.	.	.	.	.	.	.
.	.	.	16B-/JJ	.	.	.	.	.	.	.	.	.	.	.	.	.	.	.	.
8G	.	.	16B-/LL	.	8e-/L	.	4G\	sae-	4e-\	sae-	4b-\	sae-	4ee-\	Se-	.	.	.	.	.
.	.	.	16B-/	.	.	.	.	.	.	.	.	.	.	.	.	.	.	.	.
8G	.	.	16B-/	.	8g/J	.	.	.	.	.	.	.	.	.	.	.	.	.	.
.	.	.	16B-/	.	.	.	.	.	.	.	.	.	.	.	.	.	.	.	.
8G	.	.	16B-/	.	8b-\L	.	4G\	-cu-	4e-\	-cu-	4b-\	-cu-	4ee-\	-cu-	.	.	.	.	.
.	.	.	16B-/	.	.	.	.	.	.	.	.	.	.	.	.	.	.	.	.
8GJ	.	.	16B-/	.	8ee-\J	.	.	.	.	.	.	.	.	.	.	.	.	.	.
.	.	.	16B-/JJ	.	.	.	.	.	.	.	.	.	.	.	.	.	.	.	.
!LO:LB:g=original	!	!	!	!	!	!	!	!	!	!	!	!	!	!	!	!	!	!	!
=37	=37	=37	=37	=37	=37	=37	=37	=37	=37	=37	=37	=37	=37	=37	=37	=37	=37	=37	=37
8A-L	.	.	16e-/LL	.	8dd-X\L	.	2A-\	-lo-	2e-\	-lo-	2cc\	-lo-	2ee-\	-lo-	4E-/	4e-\	1b-	1ee-	.
.	.	.	16e-/	.	.	.	.	.	.	.	.	.	.	.	.	.	.	.	.
8A-	.	.	16e-/	.	8cc\J	.	.	.	.	.	.	.	.	.	.	.	.	.	.
.	.	.	16e-/	.	.	.	.	.	.	.	.	.	.	.	.	.	.	.	.
8A-	.	.	16e-/	.	4cc\	.	.	.	.	.	.	.	.	.	8E-/L	8e-\L	.	.	.
.	.	.	16e-/	.	.	.	.	.	.	.	.	.	.	.	.	.	.	.	.
8A-	.	.	16e-/	.	.	.	.	.	.	.	.	.	.	.	8E-/J	8e-\J	.	.	.
.	.	.	16e-/JJ	.	.	.	.	.	.	.	.	.	.	.	.	.	.	.	.
8A-	.	.	16e-/LL	.	8r	.	2A-\	-rum	2e-\	-rum	2cc\	-rum	2ee-\	-rum	4E-/	4e-\	.	.	.
.	.	.	16e-/	.	.	.	.	.	.	.	.	.	.	.	.	.	.	.	.
8A-	.	.	16e-/	.	8ee-\L	.	.	.	.	.	.	.	.	.	.	.	.	.	.
.	.	.	16e-/	.	.	.	.	.	.	.	.	.	.	.	.	.	.	.	.
8A-	.	.	16e-/	.	8dd-\	.	.	.	.	.	.	.	.	.	4r	4r	.	.	.
.	.	.	16e-/	.	.	.	.	.	.	.	.	.	.	.	.	.	.	.	.
8A-J	.	.	16e-/	.	8cc\J	.	.	.	.	.	.	.	.	.	.	.	.	.	.
.	.	.	16e-/JJ	.	.	.	.	.	.	.	.	.	.	.	.	.	.	.	.
!	!	!	!	!	!	!	!	!	!LO:LB:g=original	!	!	!	!	!	!	!	!LO:LB:g=original	!	!
=38	=38	=38	=38	=38	=38	=38	=38	=38	=38	=38	=38	=38	=38	=38	=38	=38	=38	=38	=38
8G\L	.6	.	16e-/LL	.	16b-/LL	.	2G\	a-	2e-\	a-	2b-\	A-	2ee-\	a-	2e-\	2g\	2b-\	2ee-\	.
.	.	.	16e-/	.	16a-/	.	.	.	.	.	.	.	.	.	.	.	.	.	.
8G\	.	.	16e-/	.	16g/	.	.	.	.	.	.	.	.	.	.	.	.	.	.
.	.	.	16e-/	.	16a-/JJ	.	.	.	.	.	.	.	.	.	.	.	.	.	.
8G\	.	.	16e-/	.	8b-\L	.	.	.	.	.	.	.	.	.	.	.	.	.	.
.	.	.	16e-/	.	.	.	.	.	.	.	.	.	.	.	.	.	.	.	.
8G\J	.	.	16e-/	.	8ee-\J	.	.	.	.	.	.	.	.	.	.	.	.	.	.
.	.	.	16e-/JJ	.	.	.	.	.	.	.	.	.	.	.	.	.	.	.	.
*	*	*	*Xtremolo	*	*	*	*	*	*	*	*	*	*	*	*	*	*	*	*
8A-\L	.	.	8a-/L	.	8cc\L	.	2A-\	.	2c\	.	2cc\	.	2ff\	.	2f\	2a-\	2cc\	2ff\	.
8A-\	.	.	8cc/	.	8aa-\	.	.	.	.	.	.	.	.	.	.	.	.	.	.
8A-\	.	.	8b-/	.	8gg\	.	.	.	.	.	.	.	.	.	.	.	.	.	.
!	!	!	!	!	!LO:TX:b:i:t=Volti Subito	!	!	!	!	!	!	!	!	!	!	!	!	!	!
8A-\J	.	.	8a-/J	.	8ff\J	.	.	.	.	.	.	.	.	.	.	.	.	.	.
!	!	!	!	!	!LO:PB:g=original	!	!	!	!	!	!	!	!	!	!	!	!	!	!
=39	=39	=39	=39	=39	=39	=39	=39	=39	=39	=39	=39	=39	=39	=39	=39	=39	=39	=39	=39
*	*	*	*tremolo	*	*tremolo	*	*	*	*	*	*	*	*	*	*	*	*	*	*
8B-\L	4	.	16g/LL	.	16ee-\LL	.	2B-\	.	1B-	.	2g\	.	2ee-\	.	2e-\	2g\	2g/	2ee-\	.
.	.	.	16g/	.	16ee-\	.	.	.	.	.	.	.	.	.	.	.	.	.	.
8B-\	.	.	16g/	.	16ee-\	.	.	.	.	.	.	.	.	.	.	.	.	.	.
.	.	.	16g/	.	16ee-\JJ	.	.	.	.	.	.	.	.	.	.	.	.	.	.
8B-\	.	.	16g/	.	16ee-\LL	.	.	.	.	.	.	.	.	.	.	.	.	.	.
.	.	.	16g/	.	16ee-\	.	.	.	.	.	.	.	.	.	.	.	.	.	.
8B-\J	.	.	16g/	.	16ee-\	.	.	.	.	.	.	.	.	.	.	.	.	.	.
.	.	.	16g/JJ	.	16ee-\JJ	.	.	.	.	.	.	.	.	.	.	.	.	.	.
8BB-/L	3	.	16f/LL	.	16dd\LL	.	2BB-/	.	.	.	2f\	.	2dd\	.	2B-/	2f\	2f/	2dd\	.
.	.	.	16f/	.	16dd\	.	.	.	.	.	.	.	.	.	.	.	.	.	.
8BB-/	.	.	16f/	.	16dd\	.	.	.	.	.	.	.	.	.	.	.	.	.	.
.	.	.	16f/	.	16dd\JJ	.	.	.	.	.	.	.	.	.	.	.	.	.	.
8BB-/	.	.	16f/	.	16dd\LL	.	.	.	.	.	.	.	.	.	.	.	.	.	.
.	.	.	16f/	.	16dd\	.	.	.	.	.	.	.	.	.	.	.	.	.	.
8BB-/J	.	.	16f/	.	16dd\	.	.	.	.	.	.	.	.	.	.	.	.	.	.
.	.	.	16f/JJ	.	16dd\JJ	.	.	.	.	.	.	.	.	.	.	.	.	.	.
*Xtremolo	*	*	*Xtremolo	*	*Xtremolo	*	*	*	*	*	*	*	*	*	*	*	*	*	*
!	!	!	!	!	!	!	!	!	!	!	!	!	!	!	!	!	!	!LO:LB:g=original	!
=40	=40	=40	=40	=40	=40	=40	=40	=40	=40	=40	=40	=40	=40	=40	=40	=40	=40	=40	=40
4E-\	.	.	4g/	.	4ee-\	.	4E-\	-men	4B-\	-men	4g\	-men,	4ee-\	-men	4G/	4e-\	4g/	4ee-\	.
4r	.	.	(16gg\LL	.	(16bb-\LL	.	4r	.	4r	.	4r	.	4r	.	4r	4r	4r	4r	.
.	.	.	16aa-\	.	16ccc\	.	.	.	.	.	.	.	.	.	.	.	.	.	.
.	.	.	16gg\	.	16bb-\	.	.	.	.	.	.	.	.	.	.	.	.	.	.
.	.	.	16ff\JJ)	.	16aa-\JJ)	.	.	.	.	.	.	.	.	.	.	.	.	.	.
4E-\	.	.	4ee-\	.	4gg\	.	4E-\	a-	4B-\	a-	4g\	A-	4ee-\	a-	4G/	4e-\	4a-X/	4gg\	.
4r	.	.	(16b-\LL	.	(16gg\LL	.	4r	.	4r	.	4r	.	4r	.	4r	4r	4ryy	4r	.
.	.	.	16cc\	.	16aa-\	.	.	.	.	.	.	.	.	.	.	.	.	.	.
.	.	.	16b-\	.	16gg\	.	.	.	.	.	.	.	.	.	.	.	.	.	.
.	.	.	16a-\JJ)	.	16ff\JJ)	.	.	.	.	.	.	.	.	.	.	.	.	.	.
!	!	!	!	!	!	!	!LO:LB:g=original	!	!	!	!LO:LB:g=original	!	!	!	!	!	!	!	!
=41	=41	=41	=41	=41	=41	=41	=41	=41	=41	=41	=41	=41	=41	=41	=41	=41	=41	=41	=41
8E-\L	.	.	8g'/L	.	8ee-\L	.	4E-\	-men	4B-\	-men	4g\	-men	4ee-\	-men	4G/	4e-\	4b-\	4gg\	.
8B-\	.	.	8b-'/	.	8g\	.	.	.	.	.	.	.	.	.	.	.	.	.	.
8c\	.	.	8cc'/	.	8cc\	.	4r	.	4r	.	4r	.	4r	.	4r	4r	4r	4r	.
8G\J	.	.	8g'/J	.	8g\J	.	.	.	.	.	.	.	.	.	.	.	.	.	.
8A-\L	.	.	8a-'/L	.	8a-/L	.	2r	.	2r	.	2r	.	2r	.	2r	2r	2r	2r	.
8F\	.	.	8f'/	.	8f/	.	.	.	.	.	.	.	.	.	.	.	.	.	.
8B-\	.	.	8b-'/	.	8b-/	.	.	.	.	.	.	.	.	.	.	.	.	.	.
8A-\J	.	.	8a-'/J	.	8a-/J	.	.	.	.	.	.	.	.	.	.	.	.	.	.
!	!	!	!LO:LB:g=original	!	!	!	!	!	!	!	!	!	!	!	!	!LO:LB:g=original	!	!	!
=42	=42	=42	=42	=42	=42	=42	=42	=42	=42	=42	=42	=42	=42	=42	=42	=42	=42	=42	=42
*	*	*	*tremolo	*	*tremolo	*	*	*	*	*	*	*	*	*	*	*	*	*	*
!	!	!	!	!	!	!	!	!	!	!	!	!	!	!	!	!LO:TX:a:i:t=Solo	!	!	!
8G\L	6	.	16g/LL	.	16ee-\LL	.	4r	.	4r	.	4r	.	4r	.	2.e-\	2g\	2.ee-\	2gg\	.
.	.	.	16g/	.	16ee-\	.	.	.	.	.	.	.	.	.	.	.	.	.	.
8G\	.	.	16g/	.	16ee-\	.	.	.	.	.	.	.	.	.	.	.	.	.	.
.	.	.	16g/	.	16ee-\JJ	.	.	.	.	.	.	.	.	.	.	.	.	.	.
*	*	*	*	*	*	*	*	*	*	*	*	*	*	*ij	*	*	*	*	*
8c\	.	.	16g/	.	16ee-\LL	.	4c\	a-	2c\	a-	4g\	a-	2ee-\	a-	.	.	.	.	.
.	.	.	16g/	.	16ee-\	.	.	.	.	.	.	.	.	.	.	.	.	.	.
8c\J	.	.	16g/	.	16ee-\	.	.	.	.	.	.	.	.	.	.	.	.	.	.
.	.	.	16g/JJ	.	16ee-\JJ	.	.	.	.	.	.	.	.	.	.	.	.	.	.
8A-\L	6 5	.	16f/LL	.	16ee-\LL	.	(4A-\	.	.	.	2f\	.	.	.	.	2f\	.	2ff\	.
.	.	.	16f/	.	16ee-\	.	.	.	.	.	.	.	.	.	.	.	.	.	.
8A-\	.	.	16f/	.	16ee-\	.	.	.	.	.	.	.	.	.	.	.	.	.	.
.	.	.	16f/	.	16ee-\JJ	.	.	.	.	.	.	.	.	.	.	.	.	.	.
8B-\	.	.	16f/	.	16dd\LL	.	4B-\)	.	4B-\	.	.	.	4dd\	.	4B-/	.	4dd\	.	.
.	.	.	16f/	.	16dd\	.	.	.	.	.	.	.	.	.	.	.	.	.	.
8B-\J	.	.	16f/	.	16dd\	.	.	.	.	.	.	.	.	.	.	.	.	.	.
.	.	.	16f/JJ	.	16dd\JJ	.	.	.	.	.	.	.	.	.	.	.	.	.	.
*	*	*	*Xtremolo	*	*Xtremolo	*	*	*	*	*	*	*	*	*	*	*	*	*	*
!LO:LB:g=original	!	!	!	!	!LO:LB:g=original	!	!	!	!	!	!	!	!LO:LB:g=original	!	!LO:LB:g=original	!	!	!	!
=43	=43	=43	=43	=43	=43	=43	=43	=43	=43	=43	=43	=43	=43	=43	=43	=43	=43	=43	=43
4E-\	.	.	4g/	.	4ee-\	.	4E-\	-men	4B-\	-men	4g\	-men	4ee-\	-men	4G/	4e-\	4ee-\	4gg\	.
*	*	*	*	*	*	*	*	*	*	*	*	*	*	*	*	*	*Xtuplet	*	*
!	!	!	!	!	!	!	!	!	!	!	!	!	!	!	!	!	!LO:TX:b:i:t=Solo	!LO:TUP:a:problem=klamra łukowa	!
4r	.	.	4r	.	4r	.	4r	.	4r	.	4r	.	4r	.	4r	4r	(12gg\L	12bb-\L	.
.	.	.	.	.	.	.	.	.	.	.	.	.	.	.	.	.	12ff\)	12aa-\	.
.	.	.	.	.	.	.	.	.	.	.	.	.	.	.	.	.	12ee-'\J	12gg\J	.
!	!	!	!	!	!	!	!	!	!	!	!	!	!	!	!	!	!	!LO:TUP:a:problem=klamra łukowa	!
4r	.	.	4r	.	4r	.	4r	.	4r	.	4r	.	4r	.	4r	4r	(12dd\L	12ff\L	.
.	.	.	.	.	.	.	.	.	.	.	.	.	.	.	.	.	12ee-\)	12gg\	.
.	.	.	.	.	.	.	.	.	.	.	.	.	.	.	.	.	12ff'\J	12aa-\J	.
*	*	*	*	*	*	*	*	*	*	*ij	*	*ij	*	*	*	*	*	*	*
!	!	!	!	!	!	!	!	!	!	!	!	!	!	!	!	!	!	!LO:TUP:a:problem=klamra łukowa	!
4BB-/	7	.	4dd 4f/	.	4ff 4b- 4d/	.	4BB-/	a-	4B-\	a-	4f\	a-	4dd\	a-	4B-/	4f\	(12b-\L	12dd\L	.
.	.	.	.	.	.	.	.	.	.	.	.	.	.	.	.	.	12cc\)	12ee-\	.
.	.	.	.	.	.	.	.	.	.	.	.	.	.	.	.	.	12dd|\J	12ff\J	.
=44	=44	=44	=44	=44	=44	=44	=44	=44	=44	=44	=44	=44	=44	=44	=44	=44	=44	=44	=44
!	!	!	!	!	!	!	!	!	!	!	!	!	!LO:TX:t=P:problem=takt nr 44 oznaczony znakiem repetycji	!	!	!	!	!	!
4E-\	.	.	4ee- 4g/	.	4gg 4b- 4e-/	.	4E-\	-men	4B-\	-men	4g\	-men	4ee-\yy	-men	4G/	4e-\	4ee-\	4gg\	.
!	!	!	!	!	!	!	!	!	!	!	!	!	!	!	!	!	!	!LO:TUP:a:problem=klamra łukowa	!
4r	.	.	4r	.	4r	.	4r	.	4r	.	4r	.	4ryy	.	4r	4r	(12gg\L	12gg\L	.
.	.	.	.	.	.	.	.	.	.	.	.	.	.	.	.	.	12ff\)	12bb-\	.
.	.	.	.	.	.	.	.	.	.	.	.	.	.	.	.	.	12ee-|\J	12gg\J	.
!	!	!	!	!	!	!	!	!	!	!	!	!	!	!	!	!	!	!LO:TUP:a:problem=klamra łukowa	!
4r	.	.	4r	.	4r	.	4r	.	4r	.	4r	.	4ryy	.	4r	4r	(12dd\L	12ff\L	.
.	.	.	.	.	.	.	.	.	.	.	.	.	.	.	.	.	12ee-\)	12gg\	.
.	.	.	.	.	.	.	.	.	.	.	.	.	.	.	.	.	12ff|\J	12aa-\J	.
*	*	*	*	*	*	*	*	*ij	*	*	*	*	*	*	*	*	*	*Xtuplet	*
4BB-/	7	.	4dd 4f/	.	4ff 4b- 4d/	.	4BB-/	a-	4B-\	a-	4f\	a-	4dd\yy	a-	4B-/	4f\	(12b-\L	(12dd\L	.
.	.	.	.	.	.	.	.	.	.	.	.	.	.	.	.	.	12cc\)	12ee-\)	.
.	.	.	.	.	.	.	.	.	.	.	.	.	.	.	.	.	12dd|\J	12ff'\J	.
=45	=45	=45	=45	=45	=45	=45	=45	=45	=45	=45	=45	=45	=45	=45	=45	=45	=45	=45	=45
4E-\	.	.	4ee- 4g/	.	4gg 4b- 4e-/	.	4E-\	-men	4B-\	-men	4g\	-men	4ee-\	-men	4G/	4e-\	4ee-\	4gg\	.
*	*	*	*	*	*	*	*	*Xij	*	*	*	*Xij	*	*	*	*	*	*	*
!	!	!	!	!	!	!	!	!	!	!	!	!	!	!	!	!	!	!LO:TX:a:t=c	!
4r	.	.	4r	.	4r	.	4r	.	4r	.	4r	.	4r	.	4r	4r	(12gg\L	12bb-\L	.
!	!	!	!	!	!	!	!	!	!	!	!	!	!	!	!	!	!	!LO:TX:a:t=b	!
.	.	.	.	.	.	.	.	.	.	.	.	.	.	.	.	.	12ff\)	12aa-\	.
.	.	.	.	.	.	.	.	.	.	.	.	.	.	.	.	.	12ee-|\J	12gg\J	.
*	*	*	*	*	*	*	*	*	*	*	*	*	*	*	*	*	*	*tuplet	*
!	!	!	!	!	!	!	!	!	!	!	!	!	!	!	!	!	!	!LO:TUP:a:problem=klamra łukowa	!
4r	.	.	4r	.	4r	.	4r	.	4r	.	4r	.	4r	.	4r	4r	(12dd\L	12ff\L	.
.	.	.	.	.	.	.	.	.	.	.	.	.	.	.	.	.	12ee-\)	12gg\	.
.	.	.	.	.	.	.	.	.	.	.	.	.	.	.	.	.	12ff'\J	12aa-\J	.
!	!	!	!	!	!	!	!	!	!	!	!	!	!	!	!	!	!	!LO:TUP:a:problem=klamra łukowa	!
4BB-/	7	.	4dd 4f/	.	4ff 4b- 4d/	.	4BB-/	a-	4B-\	a-	4f\	a-	4dd\	a-	4B-/	4f\	(12b-\L	12dd\L	.
.	.	.	.	.	.	.	.	.	.	.	.	.	.	.	.	.	12cc\)	12ee-\	.
.	.	.	.	.	.	.	.	.	.	.	.	.	.	.	.	.	12dd|\J	12ff\J	.
!	!	!	!	!	!	!	!	!	!	!	!LO:LB:g=original	!	!	!	!	!	!	!	!
=46	=46	=46	=46	=46	=46	=46	=46	=46	=46	=46	=46	=46	=46	=46	=46	=46	=46	=46	=46
4E-\	.	.	(16ee-\LL	.	(16gg\LL	.	4E-\	-men	2B-\	-men	4g\	.	4ee-\	-men	4G/	4e-\	4ee-\	4gg\	.
*	*	*	*	*	*	*	*	*ij	*	*Xij	*	*	*	*	*	*	*	*	*
.	.	.	16ff\	.	16aa-\	.	.	.	.	.	.	.	.	.	.	.	.	.	.
.	.	.	16gg\	.	16bb-\	.	.	.	.	.	.	.	.	.	.	.	.	.	.
.	.	.	16ee-\JJ)	.	16gg\JJ)	.	.	.	.	.	.	.	.	.	.	.	.	.	.
4BB-\	.	.	(16dd\LL	.	(16ff\LL	.	4BB-/	a-	.	.	4f\	-men	4dd\	a-	4B-/	4f\	4dd\	4ff\	.
.	.	.	16ee-\	.	16gg\	.	.	.	.	.	.	.	.	.	.	.	.	.	.
.	.	.	16ff\	.	16aa-\	.	.	.	.	.	.	.	.	.	.	.	.	.	.
.	.	.	16dd\JJ)	.	16ff\JJ)	.	.	.	.	.	.	.	.	.	.	.	.	.	.
4E-\	.	.	(16ee-\LL	.	(16gg\LL	.	4E-\	-men	2B-\	a-	4g\	a-	4ee-\	-men	4G/	4e-\	4ee-\	4gg\	.
*	*	*	*	*	*	*	*	*Xij	*	*	*	*	*	*Xij	*	*	*	*	*
.	.	.	16ff\	.	16aa-\	.	.	.	.	.	.	.	.	.	.	.	.	.	.
.	.	.	16gg\	.	16bb-\	.	.	.	.	.	.	.	.	.	.	.	.	.	.
.	.	.	16ee-\JJ)	.	16gg\JJ)	.	.	.	.	.	.	.	.	.	.	.	.	.	.
4BB-\	.	.	16dd\LL	.	(16ff\LL	.	4BB-/	a-	.	.	4f\	.	4dd\	a-	4B-/	4e-\	4dd\	4ff\	.
.	.	.	16ee-\	.	16gg\	.	.	.	.	.	.	.	.	.	.	.	.	.	.
.	.	.	16ff\	.	16aa-\	.	.	.	.	.	.	.	.	.	.	.	.	.	.
.	.	.	16dd\JJ	.	16ff\JJ)	.	.	.	.	.	.	.	.	.	.	.	.	.	.
!	!	!	!	!	!	!	!	!	!	!	!	!	!	!	!	!	!LO:LB:g=original	!	!
=47	=47	=47	=47	=47	=47	=47	=47	=47	=47	=47	=47	=47	=47	=47	=47	=47	=47	=47	=47
8E-\L	.	.	4ee-\	.	4gg 4b- 4e-/	.	4E-\	-men	4B-\	-men	4g\	-men.	4ee-\	-men	4G/	4e-\	4dd\	4gg\	.
8e-\	.	.	.	.	.	.	.	.	.	.	.	.	.	.	.	.	.	.	.
8B-\	.	.	4gg 4b- 4e-/	.	4gg 4b- 4e-/	.	4r	.	4r	.	4r	.	4r	.	4G/	4e-\	4b-\	4gg\	.
8G\J	.	.	.	.	.	.	.	.	.	.	.	.	.	.	.	.	.	.	.
!	!	!	!	!	!	!	!	!	!	!	!LO:TX:b:i:t=Seque Magnificat\n%	!	!	!	!	!	!	!	!
4E-\	.	.	4gg 4b- 4e-/	.	4gg 4b- 4e-/	.	2r	.	2r	.	2r	.	2r	.	4G/	4e-\	4b-\	4gg\	.
!LO:TX:b:i:t=Magnificat Werte	!	!	!	!	!	!	!	!	!	!	!	!	!	!	!	!LO:TX:b:i:t=Volti	!	!	!
4r	.	.	4r	.	4r	.	.	.	.	.	.	.	.	.	4r	4r	4r	4r	.
==	==	==	==	==	==	==	==	==	==	==	==	==	==	==	==	==	==	==	==
*-	*-	*-	*-	*-	*-	*-	*-	*-	*-	*-	*-	*-	*-	*-	*-	*-	*-	*-	*-
!!!system-decoration: [(g1)][(g2)][(g3)][(g4)]<s11>
!!!RDF**kern: | = vertical stroke
!!!ENC: Marcin Jachim
!!!END: 2020-07-08
!!!ENC: Andrzej Kubiczek
!!!END: 2021-11-22
!!!YEC: Copyright 2022 Narodowy Instytut Fryderyka Chopina (https://polishscores.org)
!!!YEM: License CC-BY-4.0 (https://creativecommons.org/licenses/by/4.0)
